polaris-icons/icons/newicons/BlockMinor.svg

<svg width="20" height="20" viewBox="0 0 20 20" fill="none" xmlns="http://www.w3.org/2000/svg">
<path fill-rule="evenodd" clip-rule="evenodd" d="M5.75 4.5C5.05964 4.5 4.5 5.05964 4.5 5.75V7.25C4.5 7.66421 4.16421 8 3.75 8C3.33579 8 3 7.66421 3 7.25V5.75C3 4.23122 4.23122 3 5.75 3H7.25C7.66421 3 8 3.33579 8 3.75C8 4.16421 7.66421 4.5 7.25 4.5H5.75Z" fill="black"/>
<path fill-rule="evenodd" clip-rule="evenodd" d="M15.5 5.75C15.5 5.05964 14.9404 4.5 14.25 4.5L12.75 4.5C12.3358 4.5 12 4.16421 12 3.75C12 3.33579 12.3358 3 12.75 3L14.25 3C15.7688 3 17 4.23122 17 5.75V7.25C17 7.66421 16.6642 8 16.25 8C15.8358 8 15.5 7.66421 15.5 7.25V5.75Z" fill="black"/>
<path fill-rule="evenodd" clip-rule="evenodd" d="M14.25 15.5C14.9404 15.5 15.5 14.9404 15.5 14.25V12.75C15.5 12.3358 15.8358 12 16.25 12C16.6642 12 17 12.3358 17 12.75V14.25C17 15.7688 15.7688 17 14.25 17H12.75C12.3358 17 12 16.6642 12 16.25C12 15.8358 12.3358 15.5 12.75 15.5L14.25 15.5Z" fill="black"/>
<path fill-rule="evenodd" clip-rule="evenodd" d="M4.5 14.25C4.5 14.9404 5.05964 15.5 5.75 15.5L7.25 15.5C7.66421 15.5 8 15.8358 8 16.25C8 16.6642 7.66421 17 7.25 17L5.75 17C4.23122 17 3 15.7688 3 14.25L3 12.75C3 12.3358 3.33579 12 3.75 12C4.16421 12 4.5 12.3358 4.5 12.75L4.5 14.25Z" fill="black"/>
</svg>

<svg viewBox="0 0 20 20" fill="none" xmlns="http://www.w3.org/2000/svg"><path fill-rule="evenodd" clip-rule="evenodd" d="M5.75 4.5c-.69 0-1.25.56-1.25 1.25v1.5a.75.75 0 0 1-1.5 0v-1.5a2.75 2.75 0 0 1 2.75-2.75h1.5a.75.75 0 0 1 0 1.5h-1.5Z" fill="#000"/><path fill-rule="evenodd" clip-rule="evenodd" d="M15.5 5.75c0-.69-.56-1.25-1.25-1.25h-1.5a.75.75 0 0 1 0-1.5h1.5a2.75 2.75 0 0 1 2.75 2.75v1.5a.75.75 0 0 1-1.5 0v-1.5Z" fill="#000"/><path fill-rule="evenodd" clip-rule="evenodd" d="M14.25 15.5c.69 0 1.25-.56 1.25-1.25v-1.5a.75.75 0 0 1 1.5 0v1.5a2.75 2.75 0 0 1-2.75 2.75h-1.5a.75.75 0 0 1 0-1.5h1.5Z" fill="#000"/><path fill-rule="evenodd" clip-rule="evenodd" d="M4.5 14.25c0 .69.56 1.25 1.25 1.25h1.5a.75.75 0 0 1 0 1.5h-1.5a2.75 2.75 0 0 1-2.75-2.75v-1.5a.75.75 0 0 1 1.5 0v1.5Z" fill="#000"/></svg>
